client/public/assets/icons/utility/chat.svg

<?xml version="1.0"?><svg xmlns="http://www.w3.org/2000/svg" width="52" height="52" viewBox="0 0 52 52"><path fill="#fff" d="m26 4c-13.3 0-23.9 9.8-23.9 21.9 0 3.8 1.1 7.4 2.9 10.6 0.3 0.5 0.4 1.1 0.2 1.7l-3.1 8.5c-0.3 0.8 0.5 1.5 1.3 1.3l8.6-3.3c0.5-0.2 1.1-0.1 1.7 0.2 3.6 2 7.9 3.2 12.5 3.2 13.1-0.1 23.8-9.8 23.8-22-0.1-12.3-10.8-22.1-24-22.1z m-12 26c-2.2 0-4-1.8-4-4s1.8-4 4-4 4 1.8 4 4-1.8 4-4 4z m12 0c-2.2 0-4-1.8-4-4s1.8-4 4-4 4 1.8 4 4-1.8 4-4 4z m12 0c-2.2 0-4-1.8-4-4s1.8-4 4-4 4 1.8 4 4-1.8 4-4 4z"></path></svg>

<?xml version="1.0" encoding="utf-8"?>
<!-- Generator: Adobe Illustrator 18.1.1, SVG Export Plug-In . SVG Version: 6.00 Build 0)  -->
<svg version="1.1" id="Layer_1" xmlns="http://www.w3.org/2000/svg" xmlns:xlink="http://www.w3.org/1999/xlink" x="0px" y="0px"
	 width="52px" height="52px" viewBox="0 0 52 52" enable-background="new 0 0 52 52" xml:space="preserve">
<path fill="#FFFFFF" d="M26,4C12.7,4,2.1,13.8,2.1,25.9c0,3.8,1.1,7.4,2.9,10.6c0.3,0.5,0.4,1.1,0.2,1.7l-3.1,8.5
	c-0.3,0.8,0.5,1.5,1.3,1.3l8.6-3.3c0.5-0.2,1.1-0.1,1.7,0.2c3.6,2,7.9,3.2,12.5,3.2C39.3,48,50,38.3,50,26.1C49.9,13.8,39.2,4,26,4z
	 M14,30c-2.2,0-4-1.8-4-4s1.8-4,4-4s4,1.8,4,4S16.2,30,14,30z M26,30c-2.2,0-4-1.8-4-4s1.8-4,4-4s4,1.8,4,4S28.2,30,26,30z M38,30
	c-2.2,0-4-1.8-4-4s1.8-4,4-4s4,1.8,4,4S40.2,30,38,30z"/>
</svg>
